;FLAVOR:Marlin
;TIME:20027
;Filament used: 18.6989m
;Layer height: 0.2
;MINX:39.656
;MINY:41.057
;MINZ:0.2
;MAXX:144.295
;MAXY:137.943
;MAXZ:53
;TARGET_MACHINE.NAME:Kingroon KP3S
;Generated with Cura_SteamEngine 5.8.1
M140 S75
M105
M190 S75
M104 S220
M105
M109 S220
M82 ;absolute extrusion mode
G28 ; home all axes
 M117 Purge extruder
 G92 E0 ; reset extruder
 G1 Z1.0 F3000 ; move z up little to prevent scratching of surface
 G1 X2 Y20 Z0.3 F5000.0 ; move to start-line position
 G1 X2 Y175.0 Z0.3 F1500.0 E15 ; draw 1st line
 G1 X2 Y175.0 Z0.4 F5000.0 ; move to side a little
 G1 X2 Y20 Z0.4 F1500.0 E30 ; draw 2nd line
 G92 E0 ; reset extruder
 G1 Z1.0 F3000 ; move z up little to prevent scratching of surface
G92 E0
G92 E0
G1 F3000 E-6
;LAYER_COUNT:263
;LAYER:0
M107
G1 F240 Z0.6
G0 F6000 X41.054 Y42.734 Z0.6
;TYPE:SKIRT
G1 F240 Z0.2
G1 F3000 E0
G1 F900 X41.483 Y42.321 E0.03882
G1 X41.853 Y42.03 E0.06951
G1 X42.254 Y41.77 E0.10067
G1 X42.484 Y41.644 E0.11777
G1 X43.019 Y41.404 E0.156
G1 X43.24 Y41.326 E0.17128
G1 X43.81 Y41.176 E0.20971
G1 X44.107 Y41.123 E0.22937
G1 X44.875 Y41.057 E0.27963
G1 X135.205 Y41.061 E6.16883
G1 X136.179 Y41.176 E6.23277
G1 X136.602 Y41.281 E6.26119
G1 X137.232 Y41.514 E6.30498
G1 X137.719 Y41.759 E6.34052
G1 X138.054 Y41.969 E6.3663
G1 X138.667 Y42.455 E6.4173
G1 X139.08 Y42.884 E6.45613
G1 X139.371 Y43.254 E6.48682
G1 X139.631 Y43.655 E6.51798
G1 X139.757 Y43.885 E6.53507
G1 X139.997 Y44.42 E6.5733
G1 X140.075 Y44.641 E6.58858
G1 X140.225 Y45.211 E6.62701
G1 X140.278 Y45.508 E6.64668
G1 X140.331 Y46.1 E6.68543
G1 X140.427 Y46.205 E6.6947
G1 X140.763 Y46.639 E6.73049
G1 X141.007 Y47.032 E6.76065
G1 X141.239 Y47.5 E6.7947
G1 X141.461 Y48.098 E6.83629
G1 X141.566 Y48.495 E6.86306
G1 X141.619 Y48.777 E6.88177
G1 X141.671 Y49.275 E6.91442
G1 X141.901 Y49.427 E6.93239
G1 X142.222 Y49.682 E6.95912
G1 X142.788 Y50.238 E7.01084
G1 X143.11 Y50.644 E7.04463
G1 X143.355 Y51.014 E7.07356
G1 X143.757 Y51.749 E7.12818
G1 X143.992 Y52.315 E7.16813
G1 X144.131 Y52.777 E7.19959
G1 X144.257 Y53.475 E7.24583
G1 X144.295 Y54.05 E7.2834
G1 X144.272 Y56.895 E7.46889
G1 X144.131 Y58.168 E7.55239
G1 X143.92 Y59.117 E7.61578
G1 X143.892 Y59.211 E7.62217
G1 X143.704 Y59.699 E7.65627
G1 X143.424 Y60.244 E7.69621
G1 X143.053 Y60.802 E7.7399
G1 X142.891 Y61.003 E7.75673
G1 X142.479 Y61.461 E7.79689
G1 X142.105 Y61.811 E7.83029
G1 X141.6 Y62.202 E7.87193
G1 X141.334 Y62.37 E7.89244
G1 X141.195 Y62.687 E7.91501
G1 X140.992 Y63.053 E7.94229
G1 X140.633 Y63.576 E7.98365
G1 X140.501 Y63.735 E7.99713
G1 X140.344 Y63.901 E8.01202
G1 X140.344 Y92.74 E9.89222
G1 X140.691 Y93.172 E9.92835
G1 X140.951 Y93.573 E9.95951
G1 X141.077 Y93.803 E9.97661
G1 X141.317 Y94.338 E10.01483
G1 X141.395 Y94.559 E10.03011
G1 X141.545 Y95.129 E10.06854
G1 X141.598 Y95.426 E10.08821
G1 X141.664 Y96.207 E10.13931
G1 X141.64 Y99.379 E10.34612
G1 X141.55 Y100.034 E10.38923
G1 X141.446 Y100.447 E10.41699
G1 X141.207 Y101.103 E10.46251
G1 X140.962 Y101.59 E10.49805
G1 X140.752 Y101.925 E10.52383
G1 X140.266 Y102.538 E10.57483
G1 X139.837 Y102.951 E10.61366
G1 X139.467 Y103.242 E10.64435
G1 X139.062 Y103.504 E10.67579
G1 X138.741 Y103.675 E10.69951
G1 X138.466 Y103.799 E10.71917
G1 X137.891 Y104 E10.75889
G1 X137.602 Y104.073 E10.77832
G1 X136.997 Y104.176 E10.81833
G1 X136.473 Y104.215 E10.85259
G1 X128.684 Y104.256 E11.36041
G1 X128.641 Y129.993 E13.03838
G1 X128.573 Y130.526 E13.07341
G1 X128.428 Y131.131 E13.11397
G1 X128.24 Y131.642 E13.14947
G1 X128.005 Y132.13 E13.18478
G1 X127.875 Y132.351 E13.2015
G1 X127.653 Y132.68 E13.22737
G1 X127.429 Y132.96 E13.25075
G1 X127.321 Y133.078 E13.26118
G1 X127.312 Y133.21 E13.26981
G1 X127.23 Y133.762 E13.30619
G1 X127.126 Y134.175 E13.33396
G1 X126.887 Y134.831 E13.37947
G1 X126.642 Y135.318 E13.41502
G1 X126.432 Y135.653 E13.44079
G1 X125.946 Y136.266 E13.4918
G1 X125.517 Y136.679 E13.53062
G1 X125.147 Y136.97 E13.56131
G1 X124.746 Y137.23 E13.59247
G1 X124.516 Y137.356 E13.60957
G1 X123.981 Y137.596 E13.6478
G1 X123.76 Y137.674 E13.66307
G1 X123.19 Y137.824 E13.7015
G1 X122.893 Y137.877 E13.72117
G1 X122.125 Y137.943 E13.77143
G1 X62.071 Y137.938 E17.68674
G1 X61.739 Y137.911 E17.70845
G1 X61.187 Y137.829 E17.74484
G1 X60.774 Y137.725 E17.7726
G1 X60.118 Y137.486 E17.81812
G1 X59.631 Y137.241 E17.85367
G1 X59.296 Y137.031 E17.87944
G1 X58.683 Y136.545 E17.93045
G1 X58.27 Y136.116 E17.96927
G1 X57.979 Y135.746 E17.99996
G1 X57.719 Y135.345 E18.03112
G1 X57.593 Y135.115 E18.04822
G1 X57.353 Y134.58 E18.08644
G1 X57.275 Y134.359 E18.10172
G1 X57.125 Y133.789 E18.14015
G1 X57.064 Y133.429 E18.16396
G1 X57.034 Y133.092 E18.18601
G1 X56.947 Y132.998 E18.19436
G1 X56.656 Y132.628 E18.22505
G1 X56.396 Y132.227 E18.25621
G1 X56.27 Y131.997 E18.27331
G1 X56.03 Y131.462 E18.31154
G1 X55.952 Y131.241 E18.32682
G1 X55.801 Y130.664 E18.3657
G1 X55.732 Y130.243 E18.39352
G1 X55.685 Y129.678 E18.43048
G1 X55.623 Y101.173 E20.28891
G1 X47.756 Y101.139 E20.80182
G1 X47.225 Y101.071 E20.83672
G1 X46.62 Y100.926 E20.87728
G1 X46.109 Y100.738 E20.91278
G1 X45.621 Y100.503 E20.94809
G1 X45.4 Y100.373 E20.96481
G1 X45.123 Y100.189 E20.98649
G1 X44.791 Y99.928 E21.01402
G1 X44.683 Y99.829 E21.02357
G1 X44.519 Y99.822 E21.03428
G1 X44.057 Y99.767 E21.06461
G1 X43.538 Y99.659 E21.09917
G1 X43.019 Y99.491 E21.13474
G1 X42.768 Y99.386 E21.15248
G1 X42.281 Y99.141 E21.18802
G1 X41.946 Y98.931 E21.2138
G1 X41.333 Y98.445 E21.2648
G1 X40.92 Y98.016 E21.30362
G1 X40.629 Y97.646 E21.33431
G1 X40.369 Y97.245 E21.36547
G1 X40.243 Y97.015 E21.38257
G1 X40.003 Y96.48 E21.4208
G1 X39.925 Y96.259 E21.43608
G1 X39.775 Y95.689 E21.4745
G1 X39.722 Y95.392 E21.49417
G1 X39.656 Y94.624 E21.54443
G1 X39.68 Y45.897 E24.72126
G1 X39.77 Y45.238 E24.76462
G1 X39.874 Y44.825 E24.79239
G1 X40.113 Y44.169 E24.83791
G1 X40.358 Y43.682 E24.87345
G1 X40.568 Y43.347 E24.89923
G1 X41.054 Y42.734 E24.95023
G0 F6000 X41.561 Y43.254
G1 F900 X41.932 Y42.892 E24.98402
G1 X42.302 Y42.601 E25.01471
G1 X42.603 Y42.407 E25.03806
G1 X42.833 Y42.281 E25.05516
G1 X43.261 Y42.089 E25.08574
G1 X43.482 Y42.011 E25.10102
G1 X43.938 Y41.891 E25.13176
G1 X44.235 Y41.838 E25.15143
G1 X44.875 Y41.783 E25.19331
G1 X135.125 Y41.783 E31.0773
G1 X136.004 Y41.881 E31.13496
G1 X136.427 Y41.986 E31.16338
G1 X136.906 Y42.163 E31.19667
G1 X137.393 Y42.408 E31.23221
G1 X137.608 Y42.542 E31.24873
G1 X138.147 Y42.962 E31.29328
G1 X138.509 Y43.333 E31.32707
G1 X138.8 Y43.703 E31.35776
G1 X138.994 Y44.004 E31.38111
G1 X139.12 Y44.234 E31.39821
G1 X139.312 Y44.662 E31.42879
G1 X139.39 Y44.883 E31.44407
G1 X139.51 Y45.339 E31.47481
G1 X139.563 Y45.636 E31.49448
G1 X139.618 Y46.276 E31.53636
G1 X139.618 Y46.407 E31.5449
G1 X139.856 Y46.653 E31.56722
G1 X140.149 Y47.026 E31.59814
G1 X140.359 Y47.359 E31.62381
G1 X140.56 Y47.757 E31.65288
G1 X140.76 Y48.286 E31.68975
G1 X140.852 Y48.629 E31.7129
G1 X140.905 Y48.911 E31.73161
G1 X140.965 Y49.503 E31.7704
G1 X140.97 Y49.706 E31.78364
G1 X141.127 Y49.789 E31.79522
G1 X141.455 Y50 E31.82065
G1 X141.717 Y50.204 E31.8423
G1 X142.221 Y50.692 E31.88803
G1 X142.507 Y51.049 E31.91786
G1 X142.72 Y51.366 E31.94276
G1 X143.086 Y52.027 E31.99202
G1 X143.321 Y52.593 E32.03197
G1 X143.434 Y52.98 E32.05826
G1 X143.533 Y53.525 E32.09437
G1 X143.569 Y54.045 E32.12835
G1 X143.55 Y56.815 E32.30895
G1 X143.409 Y58.088 E32.39245
G1 X143.212 Y58.956 E32.45048
G1 X143.056 Y59.372 E32.47945
G1 X142.818 Y59.844 E32.51391
G1 X142.485 Y60.349 E32.55335
G1 X142.351 Y60.517 E32.56736
G1 X141.939 Y60.975 E32.60753
G1 X141.611 Y61.279 E32.63668
G1 X141.213 Y61.588 E32.66953
G1 X140.755 Y61.877 E32.70484
G1 X140.557 Y62.341 E32.73773
G1 X140.392 Y62.645 E32.76028
G1 X140.071 Y63.117 E32.7975
G1 X139.973 Y63.237 E32.8076
G1 X139.618 Y63.613 E32.84131
G1 X139.618 Y93.035 E34.75952
G1 X139.829 Y93.251 E34.77921
G1 X140.12 Y93.621 E34.8099
G1 X140.314 Y93.922 E34.83325
G1 X140.44 Y94.152 E34.85034
G1 X140.632 Y94.58 E34.88093
G1 X140.71 Y94.801 E34.89621
G1 X140.83 Y95.257 E34.92695
G1 X140.883 Y95.554 E34.94662
G1 X140.938 Y96.203 E34.98908
G1 X140.92 Y99.285 E35.19002
G1 X140.844 Y99.864 E35.22809
G1 X140.762 Y100.204 E35.2509
G1 X140.558 Y100.777 E35.29055
G1 X140.313 Y101.264 E35.32609
G1 X140.179 Y101.479 E35.34261
G1 X139.759 Y102.018 E35.38716
G1 X139.388 Y102.38 E35.42095
G1 X139.018 Y102.671 E35.45164
G1 X138.717 Y102.865 E35.47499
G1 X138.443 Y103.013 E35.49529
G1 X138.168 Y103.137 E35.51496
G1 X137.713 Y103.296 E35.54639
G1 X137.424 Y103.369 E35.56582
G1 X136.878 Y103.46 E35.60191
G1 X136.469 Y103.489 E35.62864
G1 X127.959 Y103.534 E36.18347
G1 X127.915 Y129.992 E37.90844
G1 X127.854 Y130.425 E37.93695
G1 X127.745 Y130.885 E37.96777
G1 X127.585 Y131.329 E37.99854
G1 X127.377 Y131.765 E38.03004
G1 X127.27 Y131.949 E38.04391
G1 X127.086 Y132.226 E38.06559
G1 X126.862 Y132.506 E38.08897
G1 X126.605 Y132.778 E38.11337
G1 X126.593 Y133.108 E38.1349
G1 X126.524 Y133.592 E38.16677
G1 X126.442 Y133.932 E38.18957
G1 X126.238 Y134.505 E38.22923
G1 X125.993 Y134.992 E38.26477
G1 X125.859 Y135.207 E38.28129
G1 X125.439 Y135.746 E38.32584
G1 X125.068 Y136.108 E38.35963
G1 X124.698 Y136.399 E38.39032
G1 X124.397 Y136.593 E38.41367
G1 X124.167 Y136.719 E38.43077
G1 X123.739 Y136.911 E38.46135
G1 X123.518 Y136.989 E38.47663
G1 X123.062 Y137.109 E38.50737
G1 X122.765 Y137.162 E38.52704
G1 X122.125 Y137.217 E38.56892
G1 X62.127 Y137.214 E42.48058
G1 X61.841 Y137.192 E42.49928
G1 X61.357 Y137.123 E42.53116
G1 X61.017 Y137.041 E42.55396
G1 X60.444 Y136.837 E42.59361
G1 X59.957 Y136.592 E42.62915
G1 X59.742 Y136.458 E42.64567
G1 X59.203 Y136.038 E42.69022
G1 X58.841 Y135.667 E42.72402
G1 X58.55 Y135.297 E42.75471
G1 X58.356 Y134.996 E42.77805
G1 X58.23 Y134.766 E42.79515
G1 X58.038 Y134.338 E42.82573
G1 X57.96 Y134.117 E42.84101
G1 X57.84 Y133.661 E42.87176
G1 X57.787 Y133.364 E42.89142
G1 X57.734 Y132.77 E42.93031
G1 X57.518 Y132.549 E42.95045
G1 X57.227 Y132.179 E42.98114
G1 X57.033 Y131.878 E43.00449
G1 X56.907 Y131.648 E43.02159
G1 X56.715 Y131.22 E43.05217
G1 X56.637 Y130.999 E43.06745
G1 X56.517 Y130.543 E43.09819
G1 X56.456 Y130.183 E43.122
G1 X56.409 Y129.618 E43.15896
G1 X56.347 Y100.45 E45.06062
G1 X47.759 Y100.413 E45.62053
G1 X47.326 Y100.352 E45.64904
G1 X46.866 Y100.243 E45.67986
G1 X46.422 Y100.083 E45.71063
G1 X45.986 Y99.875 E45.74212
G1 X45.802 Y99.768 E45.756
G1 X45.525 Y99.584 E45.77768
G1 X45.243 Y99.36 E45.80116
G1 X44.978 Y99.109 E45.82496
G1 X44.605 Y99.101 E45.84928
G1 X44.143 Y99.046 E45.87961
G1 X43.762 Y98.968 E45.90497
G1 X43.243 Y98.8 E45.94054
G1 X43.094 Y98.737 E45.95108
G1 X42.607 Y98.492 E45.98662
G1 X42.392 Y98.358 E46.00314
G1 X41.853 Y97.938 E46.04769
G1 X41.491 Y97.567 E46.08149
G1 X41.2 Y97.197 E46.11218
G1 X41.006 Y96.896 E46.13552
G1 X40.88 Y96.666 E46.15262
G1 X40.688 Y96.238 E46.1832
G1 X40.61 Y96.017 E46.19848
G1 X40.49 Y95.561 E46.22922
G1 X40.437 Y95.264 E46.24889
G1 X40.382 Y94.624 E46.29077
G1 X40.4 Y45.991 E49.46148
G1 X40.476 Y45.408 E49.49981
G1 X40.558 Y45.068 E49.52261
G1 X40.762 Y44.495 E49.56226
G1 X41.007 Y44.008 E49.59781
G1 X41.141 Y43.793 E49.61432
G1 X41.561 Y43.254 E49.65887
G0 F6000 X42.073 Y43.769
G1 F900 X42.384 Y43.46 E49.68746
G1 X42.699 Y43.209 E49.71372
G1 X42.952 Y43.044 E49.73341
G1 X43.182 Y42.918 E49.75051
G1 X43.503 Y42.774 E49.77344
G1 X43.724 Y42.696 E49.78872
G1 X44.066 Y42.606 E49.81178
G1 X44.363 Y42.553 E49.83145
G1 X44.875 Y42.509 E49.86495
G1 X135.125 Y42.509 E55.74894
G1 X135.92 Y42.602 E55.80112
G1 X136.182 Y42.669 E55.81875
G1 X136.58 Y42.812 E55.84633
G1 X137.067 Y43.057 E55.88187
G1 X137.214 Y43.152 E55.89328
G1 X137.632 Y43.474 E55.92768
G1 X137.941 Y43.785 E55.95626
G1 X138.192 Y44.1 E55.98252
G1 X138.357 Y44.353 E56.00221
G1 X138.483 Y44.583 E56.01931
G1 X138.627 Y44.904 E56.04225
G1 X138.705 Y45.125 E56.05753
G1 X138.795 Y45.467 E56.08059
G1 X138.848 Y45.764 E56.10025
G1 X138.892 Y46.276 E56.13376
G1 X138.892 Y46.719 E56.16264
G1 X138.979 Y46.794 E56.17013
G1 X139.288 Y47.105 E56.19871
G1 X139.539 Y47.42 E56.22497
G1 X139.711 Y47.686 E56.24562
G1 X139.912 Y48.084 E56.27469
G1 X140.079 Y48.537 E56.30617
G1 X140.138 Y48.763 E56.3214
G1 X140.191 Y49.045 E56.34011
G1 X140.239 Y49.522 E56.37136
G1 X140.256 Y50.162 E56.4131
G1 X140.734 Y50.4 E56.44791
G1 X141.062 Y50.611 E56.47334
G1 X141.266 Y50.773 E56.49033
G1 X141.657 Y51.149 E56.52569
G1 X141.908 Y51.459 E56.5517
G1 X142.087 Y51.721 E56.57238
G1 X142.417 Y52.31 E56.6164
G1 X142.626 Y52.804 E56.65137
G1 X142.721 Y53.116 E56.67264
G1 X142.809 Y53.578 E56.7033
G1 X142.843 Y54.041 E56.73357
G1 X142.828 Y56.735 E56.90921
G1 X142.687 Y58.008 E56.99271
G1 X142.53 Y58.707 E57.03942
G1 X142.404 Y59.052 E57.06336
G1 X142.21 Y59.447 E57.09205
G1 X141.914 Y59.9 E57.12733
G1 X141.811 Y60.031 E57.1382
G1 X141.399 Y60.489 E57.17836
G1 X141.162 Y60.708 E57.1994
G1 X140.82 Y60.977 E57.22777
G1 X140.433 Y61.226 E57.25777
G1 X140.156 Y61.372 E57.27819
G1 X140.085 Y61.598 E57.29363
G1 X139.915 Y62.002 E57.32221
G1 X139.79 Y62.239 E57.33968
G1 X139.502 Y62.666 E57.37326
G1 X139.441 Y62.743 E57.37966
G1 X139.142 Y63.065 E57.40831
G1 X138.892 Y63.282 E57.42989
G1 X138.892 Y93.339 E59.3895
G1 X139.261 Y93.703 E59.4233
G1 X139.512 Y94.018 E59.44955
G1 X139.677 Y94.271 E59.46925
G1 X139.803 Y94.501 E59.48635
G1 X139.947 Y94.822 E59.50928
G1 X140.025 Y95.043 E59.52456
G1 X140.115 Y95.385 E59.54762
G1 X140.168 Y95.682 E59.56729
G1 X140.212 Y96.199 E59.60112
G1 X140.194 Y99.281 E59.80206
G1 X140.136 Y99.703 E59.82983
G1 X140.076 Y99.967 E59.84748
G1 X139.909 Y100.451 E59.88086
G1 X139.664 Y100.938 E59.9164
G1 X139.569 Y101.085 E59.92781
G1 X139.247 Y101.503 E59.96221
G1 X138.936 Y101.812 E59.99079
G1 X138.621 Y102.063 E60.01705
G1 X138.368 Y102.228 E60.03675
G1 X138.138 Y102.354 E60.05384
G1 X137.924 Y102.453 E60.06922
G1 X137.535 Y102.592 E60.09615
G1 X137.246 Y102.665 E60.11558
G1 X136.824 Y102.736 E60.14348
G1 X136.465 Y102.763 E60.16695
G1 X127.234 Y102.812 E60.76879
G1 X127.195 Y129.896 E62.53458
G1 X127.146 Y130.265 E62.55884
G1 X127.06 Y130.645 E62.58425
G1 X126.929 Y131.019 E62.61008
G1 X126.747 Y131.404 E62.63785
G1 X126.665 Y131.547 E62.64859
G1 X126.481 Y131.824 E62.67027
G1 X126.334 Y132.008 E62.68563
G1 X126.006 Y132.356 E62.71681
G1 X125.886 Y132.461 E62.7272
G1 X125.874 Y133.009 E62.76294
G1 X125.816 Y133.431 E62.79071
G1 X125.756 Y133.695 E62.80836
G1 X125.589 Y134.179 E62.84174
G1 X125.344 Y134.666 E62.87728
G1 X125.249 Y134.813 E62.88869
G1 X124.927 Y135.231 E62.92309
G1 X124.616 Y135.54 E62.95168
G1 X124.301 Y135.791 E62.97794
G1 X124.048 Y135.956 E62.99763
G1 X123.818 Y136.082 E63.01473
G1 X123.497 Y136.226 E63.03766
G1 X123.276 Y136.304 E63.05294
G1 X122.934 Y136.394 E63.076
G1 X122.637 Y136.447 E63.09567
G1 X122.125 Y136.491 E63.12917
G1 X62.179 Y136.49 E67.03744
G1 X61.94 Y136.473 E67.05307
G1 X61.518 Y136.415 E67.08084
G1 X61.254 Y136.355 E67.09849
G1 X60.77 Y136.188 E67.13187
G1 X60.283 Y135.943 E67.16741
G1 X60.136 Y135.848 E67.17882
G1 X59.718 Y135.526 E67.21322
G1 X59.409 Y135.215 E67.2418
G1 X59.158 Y134.9 E67.26806
G1 X58.993 Y134.647 E67.28776
G1 X58.867 Y134.417 E67.30485
G1 X58.723 Y134.096 E67.32779
G1 X58.645 Y133.875 E67.34307
G1 X58.555 Y133.533 E67.36613
G1 X58.502 Y133.236 E67.3858
G1 X58.458 Y132.724 E67.4193
G1 X58.458 Y132.463 E67.43632
G1 X58.086 Y132.097 E67.47034
G1 X57.835 Y131.782 E67.4966
G1 X57.67 Y131.529 E67.51629
G1 X57.544 Y131.299 E67.53339
G1 X57.4 Y130.978 E67.55633
G1 X57.322 Y130.757 E67.57161
G1 X57.232 Y130.415 E67.59466
G1 X57.179 Y130.12 E67.6142
G1 X57.135 Y129.616 E67.64719
G1 X57.071 Y99.727 E69.59585
G1 X47.855 Y99.693 E70.19671
G1 X47.486 Y99.644 E70.22098
G1 X47.106 Y99.558 E70.24638
G1 X46.732 Y99.427 E70.27221
G1 X46.347 Y99.245 E70.29998
G1 X46.204 Y99.163 E70.31072
G1 X45.927 Y98.979 E70.33241
G1 X45.742 Y98.832 E70.34781
G1 X45.396 Y98.505 E70.37885
G1 X45.294 Y98.387 E70.38902
G1 X44.691 Y98.38 E70.42833
G1 X44.229 Y98.325 E70.45867
G1 X43.984 Y98.277 E70.47494
G1 X43.516 Y98.127 E70.50699
G1 X43.42 Y98.088 E70.51374
G1 X42.933 Y97.843 E70.54928
G1 X42.786 Y97.748 E70.56069
