; generated by PrusaSlicer 2.8.1+win64 on 2025-01-25 at 13:05:19 UTC

; 

; external perimeters extrusion width = 0.68mm
; perimeters extrusion width = 0.68mm
; infill extrusion width = 0.68mm
; solid infill extrusion width = 0.68mm
; top infill extrusion width = 0.60mm
; support material extrusion width = 0.60mm
; first layer extrusion width = 0.70mm

;TYPE:Custom
G90 ; use absolute coordinates
M83 ; extruder relative mode
M140 S70 ; set final bed temp
M104 S150 ; set temporary nozzle temp to prevent oozing during homing
G4 S30 ; allow partial nozzle warmup
G28 ; home all axis
G1 Z50 F240
G1 X7 Y10 F3000
M300 P300 S200 ; sound buzzer to say bed levelling is done
M300 P300 S0 ; pause sound so two beeps can play
M300 P300 S200 ; sound buzzer to say bed levelling is done
M104 S210 ; set final nozzle temp
M190 S70 ; wait for bed temp to stabilize
M109 S210 ; wait for nozzle temp to stabilize
G1 Z0.28 F240
G92 E0
G1 Y140 E10 F1500 ; prime the nozzle
G1 X6 F5000
G92 E0
G1 Y10 E10 F1200 ; prime the nozzle
G92 E0
G21 ; set units to millimeters
G90 ; use absolute coordinates
M83 ; use relative distances for extrusion
; Filament gcode
M107
;LAYER_CHANGE
;Z:0.35
;HEIGHT:0.35
G1 E-5 F3600
G1 Z.35 F7800
G1 X67.254 Y50.848
G1 Z.35
G1 E5 F2400
;TYPE:Skirt/Brim
;WIDTH:0.7
G1 F1800
G1 X70.188 Y46.967 E.42027
G1 X71.833 Y45.449 E.19336
G1 X73.904 Y44.601 E.19332
G1 X75.223 Y44.462 E.11457
G1 X135.125 Y44.462 E5.17452
G1 X137.328 Y44.858 E.19335
G1 X139.254 Y45.999 E.19338
G1 X140.66 Y47.74 E.19331
G1 X141.437 Y50.774 E.27054
G1 X141.437 Y98.176 E4.09473
G1 X141.043 Y100.371 E.19264
G1 X128.043 Y135.421 E3.22928
G1 X126.905 Y137.349 E.19339
G1 X125.166 Y138.758 E.19334
G1 X122.125 Y139.538 E.27119
G1 X66.225 Y139.538 E4.82882
G1 X64.022 Y139.142 E.19335
G1 X62.096 Y138.001 E.19338
G1 X60.48 Y135.842 E.23296
G1 X43.128 Y97.742 E3.61645
G1 X42.561 Y95.126 E.23123
G1 X42.561 Y85.626 E.82064
G1 X42.957 Y83.423 E.19335
G1 X43.838 Y81.819 E.15808
G1 X67.2 Y50.919 E3.34626
G1 E-3.5 F3600
;WIPE_START
G1 F6240
G1 X67.254 Y50.848 E-.04889
G1 X68.851 Y48.736 E-1.45111
;WIPE_END
G1 X106.658 Y98.29 F7800
G1 E5 F2400
;TYPE:Perimeter
;WIDTH:0.7
G1 F1800
G1 X106.754 Y98.376 E.01113
G1 X106.992 Y98.755 E.03866
G1 X107.107 Y99.152 E.0357
G1 X107.125 Y99.386 E.02027
G1 X107.125 Y112.262 E1.11227
G1 X107.058 Y112.714 E.03947
G1 X106.873 Y113.111 E.03783
G1 X106.611 Y113.42 E.035
G1 X106.218 Y113.679 E.04066
G1 X105.79 Y113.807 E.03859
G1 X105.563 Y113.824 E.01966
G1 X82.687 Y113.824 E1.9761
G1 X82.245 Y113.76 E.03858
G1 X82.141 Y113.725 E.00948
G1 X81.744 Y113.507 E.03912
G1 X81.462 Y113.231 E.03409
G1 X81.244 Y112.859 E.03725
G1 X81.133 Y112.416 E.03945
G1 X81.125 Y112.262 E.01332
G1 X81.125 Y99.386 E1.11227
G1 X81.2 Y98.908 E.0418
G1 X81.38 Y98.532 E.03601
G1 X81.712 Y98.166 E.04269
G1 X82.07 Y97.951 E.03607
G1 X82.454 Y97.842 E.03448
G1 X83.474 Y97.824 E.08812
G1 X105.563 Y97.824 E1.90812
G1 X106.028 Y97.895 E.04063
G1 X106.427 Y98.085 E.03818
G1 X106.59 Y98.23 E.01885
G1 X106.59 Y98.23 F7800
G1 X106.224 Y98.73
G1 F1800
G1 X106.42 Y99.008 E.02938
G1 X106.5 Y99.386 E.03338
G1 X106.5 Y112.262 E1.11227
G1 X106.43 Y112.617 E.03126
G1 X106.248 Y112.901 E.02914
G1 X105.956 Y113.112 E.03112
G1 X105.563 Y113.199 E.03477
G1 X82.687 Y113.199 E1.9761
G1 X82.36 Y113.14 E.0287
G1 X82.063 Y112.96 E.03
G1 X81.859 Y112.7 E.02855
G1 X81.755 Y112.354 E.03121
G1 X81.75 Y112.262 E.00796
G1 X81.75 Y99.386 E1.11227
G1 X81.795 Y99.099 E.02509
G1 X81.942 Y98.818 E.02739
G1 X82.171 Y98.604 E.02707
G1 X82.472 Y98.474 E.02832
G1 X83.474 Y98.449 E.08658
G1 X105.57 Y98.449 E1.90872
G1 X105.912 Y98.517 E.03012
G1 X106.156 Y98.673 E.02502
G1 X106.156 Y98.673 F7800
G1 X105.777 Y99.175
;TYPE:External perimeter
G1 F1800
G1 X105.866 Y99.311 E.01404
G1 X105.875 Y112.262 E1.11875
G1 X105.809 Y112.454 E.01754
G1 X105.63 Y112.567 E.01829
G1 X82.687 Y112.574 E1.98189
G1 X82.578 Y112.554 E.00957
G1 X82.426 Y112.433 E.01678
G1 X82.375 Y112.262 E.01541
G1 X82.375 Y99.386 E1.11227
G1 X82.439 Y99.197 E.01724
G1 X82.616 Y99.082 E.01823
G1 X105.565 Y99.074 E1.9824
G1 X105.709 Y99.124 E.01317
G1 E-3.5 F3600
;WIPE_START
G1 F6240
G1 X105.777 Y99.175 E-.04659
G1 X105.866 Y99.311 E-.08908
G1 X105.868 Y101.8 E-1.36433
;WIPE_END
G1 X120.988 Y97.042 F7800
G1 E5 F2400
;TYPE:Perimeter
G1 F1800
G1 X120.758 Y97.318 E.03103
G1 X120.58 Y97.729 E.03869
G1 X120.525 Y98.138 E.03565
G1 X120.525 Y131.626 E2.8928
G1 X67.825 Y131.626 E4.55239
G1 X67.822 Y95 E3.16387
G1 X67.721 Y94.529 E.04161
G1 X67.535 Y94.182 E.03401
G1 X67.223 Y93.856 E.03898
G1 X66.784 Y93.616 E.04322
G1 X66.263 Y93.526 E.04567
G1 X50.473 Y93.526 E1.36399
G1 X50.473 Y87.226 E.54421
G1 X75.169 Y87.226 E2.13332
G1 X75.619 Y87.184 E.03904
G1 X76.004 Y87.037 E.0356
G1 X76.337 Y86.796 E.03551
G1 X76.637 Y86.402 E.04278
G1 X76.771 Y86.062 E.03157
G1 X76.823 Y85.664 E.03467
G1 X76.823 Y52.374 E2.87569
G1 X133.525 Y52.374 E4.89809
G1 X133.525 Y66.336 E1.20608
G1 X128.307 Y66.341 E.45075
G1 X127.491 Y66.418 E.0708
G1 X126.728 Y66.6 E.06776
G1 X126.173 Y66.811 E.05129
G1 X125.451 Y67.195 E.07064
G1 X124.781 Y67.687 E.07181
G1 X124.227 Y68.232 E.06713
G1 X123.861 Y68.696 E.05105
G1 X123.437 Y69.396 E.0707
G1 X123.115 Y70.162 E.07178
G1 X122.909 Y70.997 E.07429
G1 X122.825 Y71.935 E.08135
G1 X122.825 Y77.937 E.51847
G1 X122.949 Y79.106 E.10155
G1 X123.103 Y79.669 E.05042
G1 X123.434 Y80.464 E.07439
G1 X123.997 Y81.36 E.09141
G1 X124.549 Y81.975 E.07139
G1 X125.213 Y82.517 E.07404
G1 X126.171 Y83.057 E.095
G1 X127.177 Y83.392 E.09159
G1 X127.822 Y83.502 E.05652
G1 X128.424 Y83.536 E.05209
G1 X133.525 Y83.536 E.44064
G1 X133.525 Y88.637 E.44064
G1 X133.525 Y96.576 E.6858
G1 X122.965 Y96.576 E.9122
G1 X121.818 Y96.6 E.0991
G1 X121.388 Y96.741 E.03909
G1 X121.047 Y96.975 E.03573
G1 X121.047 Y96.975 F7800
G1 X121.434 Y97.482
G1 F1800
G1 X121.378 Y97.526 E.00615
G1 X121.205 Y97.821 E.02954
G1 X121.15 Y98.138 E.02779
G1 X121.15 Y132.251 E2.94678
G1 X67.2 Y132.251 E4.66037
G1 X67.2 Y95.948 E3.13596
G1 X67.189 Y94.947 E.08647
G1 X67.091 Y94.649 E.0271
G1 X66.839 Y94.349 E.03384
G1 X66.575 Y94.205 E.02598
G1 X66.263 Y94.151 E.02735
G1 X49.848 Y94.151 E1.41798
G1 X49.848 Y86.601 E.65219
G1 X75.4 Y86.59 E2.20726
G1 X75.707 Y86.488 E.02795
G1 X75.96 Y86.288 E.02786
G1 X76.147 Y85.969 E.03194
G1 X76.198 Y85.664 E.02671
G1 X76.198 Y51.749 E2.92968
G1 X134.15 Y51.749 E5.00607
G1 X134.15 Y66.961 E1.31406
G1 X128.354 Y66.964 E.50068
G1 X127.627 Y67.028 E.06304
G1 X126.938 Y67.189 E.06112
G1 X126.455 Y67.369 E.04453
G1 X125.809 Y67.706 E.06294
G1 X125.213 Y68.138 E.06359
G1 X124.709 Y68.629 E.06078
G1 X124.389 Y69.031 E.04438
G1 X124.008 Y69.65 E.06279
G1 X123.718 Y70.327 E.06362
G1 X123.531 Y71.057 E.0651
G1 X123.45 Y71.935 E.07617
G1 X123.45 Y77.937 E.51847
G1 X123.555 Y78.953 E.08823
G1 X123.687 Y79.445 E.044
G1 X123.97 Y80.143 E.06506
G1 X124.471 Y80.952 E.0822
G1 X124.957 Y81.501 E.06334
G1 X125.535 Y81.981 E.0649
G1 X126.381 Y82.469 E.08437
G1 X127.283 Y82.776 E.08231
G1 X127.904 Y82.883 E.05443
G1 X128.424 Y82.911 E.04498
G1 X134.15 Y82.911 E.49463
G1 X134.15 Y88.637 E.49463
G1 X134.15 Y97.201 E.73978
G1 X122.007 Y97.205 E1.04895
G1 X121.668 Y97.3 E.03041
G1 X121.505 Y97.427 E.01785
G1 X121.505 Y97.427 F7800
G1 X121.876 Y97.923
;TYPE:External perimeter
G1 F1800
G1 X121.841 Y97.946 E.00362
G1 X121.775 Y98.138 E.01754
G1 X121.775 Y132.876 E3.00077
G1 X66.575 Y132.876 E4.76834
G1 X66.565 Y95.01 E3.27098
G1 X66.455 Y94.842 E.01735
G1 X66.263 Y94.776 E.01754
G1 X49.223 Y94.776 E1.47197
G1 X49.223 Y85.976 E.76017
G1 X74.36 Y85.976 E2.17141
G1 X75.332 Y85.968 E.08397
G1 X75.509 Y85.853 E.01823
G1 X75.573 Y85.664 E.01724
G1 X75.573 Y51.124 E2.98367
G1 X134.775 Y51.124 E5.11405
G1 X134.775 Y67.586 E1.42204
G1 X128.4 Y67.587 E.55069
G1 X127.763 Y67.638 E.0552
G1 X127.185 Y67.767 E.05116
G1 X126.737 Y67.927 E.04109
G1 X126.168 Y68.218 E.05521
G1 X125.645 Y68.589 E.05539
G1 X125.217 Y68.999 E.0512
G1 X124.917 Y69.365 E.04088
G1 X124.578 Y69.905 E.05508
G1 X124.32 Y70.493 E.05547
G1 X124.153 Y71.118 E.05588
G1 X124.075 Y71.935 E.0709
G1 X124.075 Y77.937 E.51847
G1 X124.138 Y78.599 E.05744
G1 X124.27 Y79.22 E.05484
G1 X124.507 Y79.822 E.05589
G1 X124.944 Y80.545 E.07298
G1 X125.365 Y81.027 E.05528
G1 X125.857 Y81.446 E.05582
G1 X126.592 Y81.88 E.07373
G1 X127.389 Y82.161 E.073
G1 X127.974 Y82.261 E.05127
G1 X128.424 Y82.286 E.03893
G1 X134.775 Y82.286 E.54862
G1 X134.775 Y88.637 E.54862
G1 X134.775 Y97.826 E.79377
G1 X122.009 Y97.836 E1.10277
G1 X121.951 Y97.874 E.00599
G1 E-3.5 F3600
;WIPE_START
G1 F6240
G1 X121.876 Y97.923 E-.0491
G1 X121.841 Y97.946 E-.02295
G1 X121.775 Y98.138 E-.11127
G1 X121.775 Y100.54 E-1.31668
;WIPE_END
G1 X133.338 Y53.827 F7800
G1 E5 F2400
;TYPE:Solid infill
;WIDTH:0.701217
G1 F1800
G1 X132.353 Y52.842 E.12057
G1 X131.468 Y52.842 E.0766
G1 X133.057 Y54.431 E.1945
G1 X133.057 Y55.317 E.07668
G1 X130.582 Y52.842 E.30294
G1 X129.697 Y52.842 E.0766
G1 X133.057 Y56.202 E.41127
G1 X133.057 Y57.088 E.07668
G1 X128.811 Y52.842 E.51972
G1 X127.926 Y52.842 E.0766
G1 X133.057 Y57.973 E.62804
G1 X133.057 Y58.858 E.0766
G1 X127.041 Y52.842 E.73637
G1 X126.155 Y52.842 E.07668
G1 X133.057 Y59.744 E.84482
G1 X133.057 Y60.629 E.0766
G1 X125.27 Y52.842 E.95314
G1 X124.384 Y52.842 E.07668
G1 X133.057 Y61.515 E1.06159
G1 X133.057 Y62.4 E.0766
G1 X123.499 Y52.842 E1.16992
G1 X122.613 Y52.842 E.07668
G1 X133.057 Y63.286 E1.27837
G1 X133.057 Y64.171 E.0766
G1 X121.728 Y52.842 E1.38669
G1 X120.842 Y52.842 E.07668
G1 X133.057 Y65.057 E1.49514
G1 X133.057 Y65.868 E.07019
G1 X132.982 Y65.868 E.00649
G1 X119.957 Y52.842 E1.59435
G1 X119.071 Y52.842 E.07668
G1 X132.098 Y65.869 E1.59453
G1 X131.213 Y65.87 E.0766
G1 X118.186 Y52.842 E1.59459
G1 X117.301 Y52.842 E.0766
G1 X130.329 Y65.871 E1.59471
G1 X129.444 Y65.872 E.0766
G1 X116.415 Y52.842 E1.59484
G1 X115.53 Y52.842 E.0766
G1 X128.56 Y65.872 E1.5949
G1 X128.277 Y65.873 E.02449
G1 X127.721 Y65.919 E.04829
G1 X114.644 Y52.842 E1.60065
G1 X113.759 Y52.842 E.0766
G1 X126.971 Y66.055 E1.61724
G1 X126.803 Y66.091 E.01487
G1 X126.292 Y66.261 E.04661
G1 X112.873 Y52.842 E1.64251
G1 X111.988 Y52.842 E.0766
G1 X125.682 Y66.537 E1.67623
G1 X125.302 Y66.732 E.03697
G1 X125.12 Y66.86 E.01926
G1 X111.102 Y52.842 E1.71583
G1 X110.217 Y52.842 E.0766
G1 X124.6 Y67.225 E1.76051
G1 X124.143 Y67.654 E.05425
G1 X109.332 Y52.842 E1.81296
G1 X108.446 Y52.842 E.07668
G1 X123.718 Y68.114 E1.86932
G1 X123.607 Y68.248 E.01506
G1 X123.353 Y68.634 E.03999
G1 X107.561 Y52.842 E1.93297
G1 X106.675 Y52.842 E.07668
G1 X123.019 Y69.186 E2.00054
G1 X122.751 Y69.804 E.0583
G1 X105.79 Y52.842 E2.07612
G1 X104.904 Y52.842 E.07668
G1 X122.546 Y70.484 E2.15942
G1 X122.465 Y70.786 E.02706
G1 X122.422 Y71.245 E.0399
G1 X104.019 Y52.842 E2.25256
G1 X103.133 Y52.842 E.07668
G1 X122.357 Y72.066 E2.35306
G1 X122.357 Y72.951 E.0766
G1 X102.248 Y52.842 E2.46138
G1 X101.363 Y52.842 E.0766
G1 X122.357 Y73.836 E2.56971
G1 X122.357 Y74.722 E.07668
G1 X100.477 Y52.842 E2.67816
G1 X99.592 Y52.842 E.0766
G1 X122.357 Y75.607 E2.78648
G1 X122.357 Y76.493 E.07668
G1 X98.706 Y52.842 E2.89493
G1 X97.821 Y52.842 E.0766
G1 X122.357 Y77.378 E3.00326
G1 X122.357 Y77.944 E.04899
G1 X122.388 Y78.295 E.0305
G1 X96.935 Y52.842 E3.1155
G1 X96.05 Y52.842 E.0766
G1 X122.925 Y79.717 E3.28955
G1 E-3.5 F3600
;WIPE_START
G1 F6240
G1 X120.99 Y77.782 E-1.5
;WIPE_END
G1 X132.243 Y83.723 F7800
G1 E5 F2400
G1 F1800
G1 X133.057 Y84.536 E.09957
G1 X133.057 Y85.422 E.07668
G1 X131.638 Y84.004 E.17363
G1 X130.752 Y84.003 E.07668
G1 X133.057 Y86.307 E.28208
G1 X133.057 Y87.193 E.07668
G1 X129.867 Y84.003 E.39046
G1 X128.981 Y84.002 E.07668
G1 X133.057 Y88.078 E.49891
G1 X133.057 Y88.964 E.07668
G1 X128.08 Y83.987 E.60919
G1 X127.762 Y83.967 E.02758
G1 X127.046 Y83.839 E.06295
G1 X133.057 Y89.849 E.7357
G1 X133.057 Y90.735 E.07668
G1 X125.62 Y83.298 E.9103
G1 X124.823 Y82.821 E.08039
G1 X124.127 Y82.222 E.07948
G1 X123.576 Y81.586 E.07283
G1 X123.041 Y80.719 E.08818
G1 X95.164 Y52.842 E3.4122
G1 X94.279 Y52.842 E.0766
G1 X133.057 Y91.62 E4.74651
G1 X133.057 Y92.505 E.0766
G1 X93.394 Y52.842 E4.85483
G1 X92.508 Y52.842 E.07668
G1 X133.057 Y93.391 E4.96328
G1 X133.057 Y94.276 E.0766
G1 X91.623 Y52.842 E5.0716
G1 X90.737 Y52.842 E.07668
G1 X133.057 Y95.162 E5.18005
G1 X133.057 Y96.047 E.0766
G1 X89.852 Y52.842 E5.28838
G1 X88.966 Y52.842 E.07668
G1 X132.232 Y96.108 E5.29585
G1 X131.347 Y96.109 E.0766
G1 X88.081 Y52.842 E5.29591
G1 X87.195 Y52.842 E.07668
G1 X130.462 Y96.109 E5.29597
G1 X129.577 Y96.11 E.0766
G1 X86.31 Y52.842 E5.29603
G1 X85.424 Y52.842 E.07668
G1 X128.692 Y96.11 E5.29609
G1 X127.807 Y96.111 E.0766
G1 X84.539 Y52.842 E5.29615
G1 X83.654 Y52.842 E.0766
G1 X126.923 Y96.111 E5.29621
G1 X126.038 Y96.112 E.0766
G1 X82.768 Y52.842 E5.29633
G1 X81.883 Y52.842 E.0766
G1 X125.153 Y96.112 E5.29633
G1 X124.268 Y96.113 E.0766
G1 X80.997 Y52.842 E5.29646
G1 X80.112 Y52.842 E.0766
G1 X123.383 Y96.114 E5.29652
G1 X122.498 Y96.114 E.0766
G1 X79.226 Y52.842 E5.29658
G1 X78.341 Y52.842 E.0766
G1 X121.657 Y96.159 E5.30203
G1 X121.31 Y96.262 E.03133
G1 X121.025 Y96.412 E.02788
G1 X77.455 Y52.842 E5.33306
G1 X77.291 Y52.842 E.01419
G1 X77.291 Y53.564 E.06249
G1 X120.548 Y96.82 E5.29468
G1 X120.424 Y96.973 E.01705
G1 X120.294 Y97.185 E.02152
G1 X120.212 Y97.37 E.01751
G1 X77.291 Y54.449 E5.25362
G1 X77.291 Y55.335 E.07668
G1 X120.059 Y98.103 E5.23489
G1 X120.057 Y98.985 E.07634
G1 X77.291 Y56.22 E5.23458
G1 X77.291 Y57.106 E.07668
G1 X120.057 Y99.871 E5.23458
G1 X120.057 Y100.756 E.0766
G1 X77.291 Y57.991 E5.23458
G1 X77.291 Y58.877 E.07668
G1 X120.057 Y101.642 E5.23458
G1 X120.057 Y102.527 E.0766
G1 X77.291 Y59.762 E5.23458
G1 X77.291 Y60.647 E.0766
G1 X120.057 Y103.413 E5.23464
G1 X120.057 Y104.298 E.0766
G1 X77.291 Y61.533 E5.23458
G1 X77.291 Y62.418 E.0766
G1 X120.057 Y105.183 E5.23458
G1 X120.057 Y106.069 E.07668
G1 X77.291 Y63.304 E5.23458
G1 X77.291 Y64.189 E.0766
G1 X120.057 Y106.954 E5.23458
G1 X120.057 Y107.84 E.07668
G1 X77.291 Y65.075 E5.23458
G1 X77.291 Y65.96 E.0766
G1 X120.057 Y108.725 E5.23458
G1 X120.057 Y109.611 E.07668
G1 X77.291 Y66.846 E5.23458
G1 X77.291 Y67.731 E.0766
G1 X120.057 Y110.496 E5.23458
G1 X120.057 Y111.382 E.07668
G1 X77.291 Y68.616 E5.23464
G1 X77.291 Y69.502 E.07668
G1 X105.145 Y97.356 E3.40939
G1 X104.26 Y97.356 E.0766
G1 X77.291 Y70.387 E3.30106
G1 X77.291 Y71.273 E.07668
G1 X103.374 Y97.356 E3.19261
G1 X102.489 Y97.356 E.0766
G1 X77.291 Y72.158 E3.08429
G1 X77.291 Y73.044 E.07668
G1 X101.603 Y97.356 E2.97584
G1 X100.718 Y97.356 E.0766
G1 X77.291 Y73.929 E2.86751
G1 X77.291 Y74.815 E.07668
G1 X99.832 Y97.356 E2.75906
G1 X98.947 Y97.356 E.0766
G1 X77.291 Y75.7 E2.65074
G1 X77.291 Y76.586 E.07668
G1 X98.061 Y97.356 E2.54229
G1 X97.176 Y97.356 E.0766
G1 X77.291 Y77.471 E2.43396
G1 X77.291 Y78.356 E.0766
G1 X96.291 Y97.356 E2.32564
G1 X95.405 Y97.356 E.07668
G1 X77.291 Y79.242 E2.21719
G1 X77.291 Y80.127 E.0766
G1 X94.52 Y97.356 E2.10886
G1 X93.634 Y97.356 E.07668
G1 X77.291 Y81.013 E2.00042
G1 X77.291 Y81.898 E.0766
G1 X92.749 Y97.356 E1.89209
G1 X91.863 Y97.356 E.07668
G1 X77.291 Y82.784 E1.78364
G1 X77.291 Y83.669 E.0766
G1 X90.978 Y97.356 E1.67532
G1 X90.092 Y97.356 E.07668
G1 X77.291 Y84.555 E1.56687
G1 X77.291 Y85.44 E.0766
G1 X89.207 Y97.356 E1.45854
G1 X88.322 Y97.356 E.0766
G1 X77.204 Y86.238 E1.36087
G1 X77.051 Y86.623 E.03586
G1 X76.915 Y86.835 E.0218
G1 X87.436 Y97.356 E1.28779
G1 X86.551 Y97.356 E.0766
G1 X76.479 Y87.284 E1.23283
G1 X76.23 Y87.448 E.02581
G1 X75.895 Y87.585 E.03133
G1 X85.665 Y97.356 E1.19593
G1 X84.78 Y97.356 E.0766
G1 X75.119 Y87.694 E1.18259
G1 X74.233 Y87.694 E.07668
G1 X83.894 Y97.356 E1.18259
G1 X83.009 Y97.356 E.0766
G1 X73.348 Y87.694 E1.18259
G1 X72.462 Y87.694 E.07668
G1 X82.188 Y97.42 E1.19048
G1 X81.885 Y97.52 E.02762
G1 X81.572 Y97.689 E.03079
G1 X71.577 Y87.694 E1.22341
G1 X70.691 Y87.694 E.07668
G1 X81.116 Y98.119 E1.27604
G1 X80.988 Y98.273 E.01733
G1 X80.826 Y98.573 E.02951
G1 X80.792 Y98.68 E.00972
G1 X69.806 Y87.694 E1.34471
G1 X68.921 Y87.694 E.0766
G1 X80.657 Y99.43 E1.43651
G1 X80.657 Y100.316 E.07668
